projects/vfh1/img/icons-service/People.svg

<svg viewBox="0 0 33 28" fill="none" xmlns="http://www.w3.org/2000/svg">
<path d="M20.6667 12.8333C22.6034 12.8333 24.155 11.27 24.155 9.33334C24.155 7.39668 22.6034 5.83334 20.6667 5.83334C18.73 5.83334 17.1667 7.39668 17.1667 9.33334C17.1667 11.27 18.73 12.8333 20.6667 12.8333ZM11.3334 12.8333C13.27 12.8333 14.8217 11.27 14.8217 9.33334C14.8217 7.39668 13.27 5.83334 11.3334 5.83334C9.39669 5.83334 7.83335 7.39668 7.83335 9.33334C7.83335 11.27 9.39669 12.8333 11.3334 12.8333ZM11.3334 15.1667C8.61502 15.1667 3.16669 16.5317 3.16669 19.25V21C3.16669 21.6417 3.69169 22.1667 4.33335 22.1667H18.3334C18.975 22.1667 19.5 21.6417 19.5 21V19.25C19.5 16.5317 14.0517 15.1667 11.3334 15.1667ZM20.6667 15.1667C20.3284 15.1667 19.9434 15.19 19.535 15.225C19.5584 15.2367 19.57 15.26 19.5817 15.2717C20.9117 16.24 21.8334 17.535 21.8334 19.25V21C21.8334 21.4083 21.7517 21.805 21.6234 22.1667H27.6667C28.3084 22.1667 28.8334 21.6417 28.8334 21V19.25C28.8334 16.5317 23.385 15.1667 20.6667 15.1667Z" fill="#42474D"/>
</svg>

<svg viewBox="0 0 33 28" fill="none" xmlns="http://www.w3.org/2000/svg"><path d="M20.667 12.833a3.485 3.485 0 003.488-3.5c0-1.936-1.552-3.5-3.488-3.5a3.495 3.495 0 00-3.5 3.5c0 1.937 1.563 3.5 3.5 3.5zm-9.334 0a3.485 3.485 0 003.489-3.5c0-1.936-1.552-3.5-3.489-3.5a3.495 3.495 0 00-3.5 3.5c0 1.937 1.564 3.5 3.5 3.5zm0 2.334c-2.718 0-8.166 1.365-8.166 4.083V21a1.17 1.17 0 001.166 1.167h14A1.17 1.17 0 0019.5 21v-1.75c0-2.718-5.448-4.083-8.167-4.083zm9.334 0c-.339 0-.724.023-1.132.058.023.012.035.035.047.047 1.33.968 2.251 2.263 2.251 3.978V21c0 .408-.081.805-.21 1.167h6.044A1.17 1.17 0 0028.833 21v-1.75c0-2.718-5.448-4.083-8.166-4.083z" fill="#42474D"/></svg>
